;FLAVOR:UltiGCode
;TIME:5943
;MATERIAL:26443
;MATERIAL2:0
;NOZZLE_DIAMETER:0.6
;MINX:2.481
;MINY:8.081
;MINZ:0.4
;MAXX:220.968
;MAXY:219.545
;MAXZ:4.8
;Generated with Cura_SteamEngine 4.5.0
M82 ;absolute extrusion mode

G92 E0
G92 E0
G10
;LAYER_COUNT:12
;LAYER:0
M107
G0 F3960 X42.165 Y35.038 Z0.4
;TYPE:SKIRT
G11
G1 F1500 E1
G1 F1980 X42.539 Y34.638 E1.11609
G1 X43.065 Y34.128 E1.27141
G1 X43.445 Y33.794 E1.37867
G1 X44.06 Y33.308 E1.54485
G1 X44.56 Y32.955 E1.6746
G1 X45.155 Y32.58 E1.8237
G1 X45.684 Y32.284 E1.95221
G1 X46.247 Y32.004 E2.08552
G1 X46.707 Y31.8 E2.1922
G1 X47.458 Y31.512 E2.36271
G1 X48.03 Y31.33 E2.48997
G1 X48.693 Y31.153 E2.63545
G1 X49.304 Y31.026 E2.76775
G1 X49.975 Y30.92 E2.91176
G1 X52.732 Y30.599 E3.5002
G1 X55.451 Y30.209 E4.08252
G1 X58.096 Y29.752 E4.65157
G1 X60.827 Y29.201 E5.24221
G1 X63.445 Y28.597 E5.81181
G1 X66.124 Y27.897 E6.39882
G1 X68.756 Y27.128 E6.98013
G1 X71.348 Y26.293 E7.55745
G1 X73.915 Y25.382 E8.13491
G1 X76.468 Y24.396 E8.7151
G1 X79.047 Y23.314 E9.30802
G1 X81.471 Y22.217 E9.87208
G1 X83.951 Y21.008 E10.45699
G1 X86.02 Y19.92 E10.95257
G1 X86.539 Y19.653 E11.0763
G1 X87.127 Y19.365 E11.21511
G1 X87.708 Y19.12 E11.34878
G1 X88.275 Y18.915 E11.4766
G1 X88.879 Y18.72 E11.61116
G1 X89.901 Y18.42 E11.83697
G1 X91.798 Y17.878 E12.25522
G1 X92.983 Y17.554 E12.51566
G1 X95.577 Y16.877 E13.08401
G1 X96.791 Y16.573 E13.34933
G1 X99.388 Y15.953 E13.91536
G1 X100.813 Y15.633 E14.22499
G1 X103.517 Y15.011 E14.81321
G1 X106.164 Y14.324 E15.39296
G1 X108.763 Y13.568 E15.96679
G1 X111.412 Y12.718 E16.55658
G1 X113.955 Y11.821 E17.12825
G1 X116.506 Y10.84 E17.70767
G1 X119.066 Y9.77 E18.29589
G1 X122.134 Y8.381 E19.00986
G1 X122.615 Y8.207 E19.1183
G1 X123.367 Y8.092 E19.27958
G1 X128.968 Y8.081 E20.46699
G1 X129.655 Y8.091 E20.61265
G1 X130.162 Y8.122 E20.72033
G1 X132.367 Y8.309 E21.18947
G1 X135.115 Y8.465 E21.77299
G1 X137.866 Y8.544 E22.35644
G1 X140.581 Y8.544 E22.93202
G1 X143.326 Y8.467 E23.51419
G1 X146.094 Y8.31 E24.10195
G1 X147.958 Y8.16 E24.49839
G1 X148.582 Y8.104 E24.63121
G1 X149.094 Y8.082 E24.73986
G1 X154.322 Y8.081 E25.84819
G1 X155.056 Y8.091 E26.00381
G1 X155.565 Y8.139 E26.1122
G1 X156.06 Y8.265 E26.22049
G1 X156.859 Y8.613 E26.40524
G1 X159.422 Y9.771 E27.00149
G1 X161.89 Y10.802 E27.56852
G1 X164.475 Y11.799 E28.15589
G1 X167.057 Y12.711 E28.73641
G1 X169.653 Y13.546 E29.31454
G1 X172.275 Y14.309 E29.89346
G1 X174.933 Y15 E30.47568
G1 X179.037 Y15.937 E31.36812
G1 X181.737 Y16.58 E31.95653
G1 X182.817 Y16.849 E32.19248
G1 X185.478 Y17.544 E32.77554
G1 X186.676 Y17.872 E33.03886
G1 X189.132 Y18.572 E33.58027
G1 X189.764 Y18.761 E33.72012
G1 X190.437 Y18.985 E33.87049
G1 X191.071 Y19.225 E34.0142
G1 X191.955 Y19.643 E34.22151
G1 X192.483 Y19.94 E34.34994
G1 X192.979 Y20.25 E34.47394
G1 X193.476 Y20.599 E34.60268
G1 X193.925 Y20.948 E34.72324
G1 X194.362 Y21.327 E34.84588
G1 X194.837 Y21.783 E34.98547
G1 X195.234 Y22.207 E35.10861
G1 X195.617 Y22.659 E35.23421
G1 X195.97 Y23.122 E35.35764
G1 X197.092 Y24.761 E35.77872
G1 X198.009 Y26.079 E36.11911
G1 X199.638 Y28.312 E36.70509
G1 X201.293 Y30.448 E37.27794
G1 X203.04 Y32.579 E37.86212
G1 X204.821 Y34.629 E38.43783
G1 X206.695 Y36.668 E39.02494
G1 X208.592 Y38.616 E39.60138
G1 X210.572 Y40.539 E40.18653
G1 X211.779 Y41.656 E40.53517
G1 X212.293 Y42.145 E40.68557
G1 X212.71 Y42.586 E40.81424
G1 X213.092 Y43.033 E40.9389
G1 X213.427 Y43.465 E41.05479
G1 X213.786 Y43.967 E41.18563
G1 X214.968 Y45.63 E41.61817
G1 X216.62 Y47.823 E42.20024
G1 X218.326 Y49.96 E42.77994
G1 X219.786 Y51.672 E43.25694
G1 X220.202 Y52.172 E43.39483
G1 X220.497 Y52.589 E43.50312
G1 X220.723 Y53.047 E43.61139
G1 X220.875 Y53.535 E43.71975
G1 X220.952 Y54.095 E43.83959
G1 X220.885 Y59.947 E45.08029
G1 X220.863 Y60.694 E45.23873
G1 X220.824 Y61.215 E45.34949
G1 X220.626 Y63.933 E45.92723
G1 X220.503 Y66.683 E46.51081
G1 X220.46 Y69.43 E47.09325
G1 X220.494 Y72.178 E47.67587
G1 X220.604 Y74.894 E48.25213
G1 X220.793 Y77.635 E48.83461
G1 X220.943 Y79.276 E49.18395
G1 X220.968 Y79.817 E49.29876
G1 X220.885 Y85.342 E50.47019
G1 X220.863 Y86.09 E50.62884
G1 X220.807 Y86.597 E50.73698
G1 X220.674 Y87.09 E50.84523
G1 X220.229 Y88.018 E51.06342
G1 X219.422 Y89.506 E51.42228
G1 X218.201 Y91.921 E51.99597
G1 X217.04 Y94.382 E52.57285
G1 X215.947 Y96.886 E53.15207
G1 X214.9 Y99.472 E53.74353
G1 X213.962 Y102.007 E54.31656
G1 X213.082 Y104.6 E54.89707
G1 X212.276 Y107.214 E55.47698
G1 X211.719 Y109.194 E55.91303
G1 X211.107 Y111.46 E56.41064
G1 X210.751 Y112.716 E56.6874
G1 X210.005 Y115.23 E57.24334
G1 X209.633 Y116.425 E57.50867
G1 X208.844 Y118.862 E58.05172
G1 X208.394 Y120.194 E58.34978
G1 X207.542 Y122.616 E58.89409
G1 X207.106 Y123.809 E59.16336
G1 X206.182 Y126.245 E59.7157
G1 X205.698 Y127.472 E59.99533
G1 X204.723 Y129.863 E60.54274
G1 X204.205 Y131.089 E60.8249
G1 X203.166 Y133.463 E61.37428
G1 X202.645 Y134.615 E61.64232
G1 X201.501 Y137.063 E62.21517
G1 X200.985 Y138.134 E62.4672
G1 X199.792 Y140.528 E63.03426
G1 X199.216 Y141.652 E63.30201
G1 X197.982 Y143.984 E63.86134
G1 X197.392 Y145.068 E64.12299
G1 X196.462 Y146.722 E64.52526
G1 X195.126 Y149.182 E65.11873
G1 X193.893 Y151.61 E65.69604
G1 X192.724 Y154.087 E66.2767
G1 X191.633 Y156.575 E66.85264
G1 X190.596 Y159.131 E67.43741
G1 X189.641 Y161.703 E68.01905
G1 X188.763 Y164.284 E68.59701
G1 X187.959 Y166.885 E69.17417
G1 X187.226 Y169.517 E69.75339
G1 X186.562 Y172.194 E70.33811
G1 X185.977 Y174.864 E70.91758
G1 X185.472 Y177.549 E71.49678
G1 X185.04 Y180.253 E72.0773
G1 X184.686 Y182.958 E72.65564
G1 X184.383 Y185.879 E73.27822
G1 X184.191 Y186.929 E73.50451
G1 X184.043 Y187.521 E73.63388
G1 X183.857 Y188.136 E73.77009
G1 X183.648 Y188.717 E73.90099
G1 X183.379 Y189.364 E74.04954
G1 X183.114 Y189.911 E74.17839
G1 X182.784 Y190.518 E74.32486
G1 X182.475 Y191.021 E74.45001
G1 X182.086 Y191.59 E74.59614
G1 X181.775 Y192.003 E74.70574
G1 X181.284 Y192.587 E74.86749
G1 X180.874 Y193.025 E74.99468
G1 X180.382 Y193.501 E75.13981
G1 X179.903 Y193.916 E75.27417
G1 X179.396 Y194.313 E75.41069
G1 X178.98 Y194.609 E75.51893
G1 X178.313 Y195.035 E75.68671
G1 X177.805 Y195.32 E75.8102
G1 X177.179 Y195.633 E75.95857
G1 X176.603 Y195.884 E76.09177
G1 X175.975 Y196.119 E76.23393
G1 X175.423 Y196.294 E76.35669
G1 X174.756 Y196.472 E76.50304
G1 X174.145 Y196.599 E76.63534
G1 X173.474 Y196.705 E76.77936
G1 X170.717 Y197.026 E77.36779
G1 X167.998 Y197.416 E77.95012
G1 X165.353 Y197.873 E78.51917
G1 X162.622 Y198.424 E79.10981
G1 X160.004 Y199.028 E79.6794
G1 X157.325 Y199.728 E80.26642
G1 X154.693 Y200.497 E80.84773
G1 X152.101 Y201.332 E81.42504
G1 X149.534 Y202.243 E82.0025
G1 X146.981 Y203.229 E82.5827
G1 X144.402 Y204.311 E83.17562
G1 X141.978 Y205.408 E83.73968
G1 X139.498 Y206.617 E84.32459
G1 X137.429 Y207.705 E84.82017
G1 X136.91 Y207.972 E84.9439
G1 X136.322 Y208.26 E85.08271
G1 X135.805 Y208.48 E85.20182
G1 X135.218 Y208.696 E85.33442
G1 X133.629 Y209.183 E85.68676
G1 X131.584 Y209.766 E86.13757
G1 X130.507 Y210.061 E86.3743
G1 X127.804 Y210.768 E86.96662
G1 X126.717 Y211.038 E87.20406
G1 X124.016 Y211.682 E87.79273
G1 X122.682 Y211.982 E88.0826
G1 X119.978 Y212.603 E88.67077
G1 X117.34 Y213.287 E89.24852
G1 X114.723 Y214.045 E89.82613
G1 X112.102 Y214.886 E90.40968
G1 X109.504 Y215.8 E90.99355
G1 X107.015 Y216.757 E91.55888
G1 X104.452 Y217.825 E92.14752
G1 X101.338 Y219.234 E92.87212
G1 X100.859 Y219.41 E92.98031
G1 X100.122 Y219.53 E93.13861
G1 X94.482 Y219.545 E94.33429
G1 X93.794 Y219.535 E94.48016
G1 X93.254 Y219.502 E94.59486
G1 X91.044 Y219.314 E95.06507
G1 X88.304 Y219.16 E95.64687
G1 X85.557 Y219.083 E96.22946
G1 X82.842 Y219.083 E96.80504
G1 X80.092 Y219.162 E97.38828
G1 X77.361 Y219.317 E97.96818
G1 X75.691 Y219.45 E98.32335
G1 X74.849 Y219.524 E98.50254
G1 X74.306 Y219.545 E98.61774
G1 X69.082 Y219.545 E99.72523
G1 X68.394 Y219.535 E99.8711
G1 X67.885 Y219.487 E99.97949
G1 X67.39 Y219.361 E100.08777
G1 X66.573 Y219.004 E100.27679
G1 X64.021 Y217.852 E100.87038
G1 X61.496 Y216.795 E101.45069
G1 X58.951 Y215.817 E102.0287
G1 X56.38 Y214.91 E102.60667
G1 X53.768 Y214.07 E103.18835
G1 X51.165 Y213.314 E103.76299
G1 X48.489 Y212.618 E104.34917
G1 X44.435 Y211.693 E105.23071
G1 X41.761 Y211.057 E105.81341
G1 X40.595 Y210.767 E106.06813
G1 X37.891 Y210.06 E106.66065
G1 X36.837 Y209.771 E106.89235
G1 X34.32 Y209.054 E107.44718
G1 X33.697 Y208.867 E107.58508
G1 X32.974 Y208.627 E107.74658
G1 X32.425 Y208.421 E107.87089
G1 X31.503 Y207.986 E108.08702
G1 X30.981 Y207.695 E108.21371
G1 X30.479 Y207.381 E108.33924
G1 X29.987 Y207.036 E108.46664
G1 X29.512 Y206.666 E108.59428
G1 X29.048 Y206.262 E108.72471
G1 X28.63 Y205.861 E108.84751
G1 X28.201 Y205.403 E108.98055
G1 X27.828 Y204.962 E109.103
G1 X27.467 Y204.487 E109.22948
G1 X26.023 Y202.379 E109.77117
G1 X24.432 Y200.149 E110.35192
G1 X22.808 Y198.002 E110.92263
G1 X21.057 Y195.82 E111.51574
G1 X19.312 Y193.769 E112.08663
G1 X17.477 Y191.73 E112.66817
G1 X15.585 Y189.743 E113.24984
G1 X13.649 Y187.821 E113.82818
G1 X11.781 Y186.073 E114.37054
G1 X11.149 Y185.472 E114.55543
G1 X10.74 Y185.038 E114.68186
G1 X10.344 Y184.575 E114.81102
G1 X10.012 Y184.145 E114.92619
G1 X8.434 Y181.93 E115.50275
G1 X6.753 Y179.706 E116.09377
G1 X5.065 Y177.597 E116.66645
G1 X3.662 Y175.951 E117.12497
G1 X3.24 Y175.445 E117.26465
G1 X2.945 Y175.028 E117.37294
G1 X2.719 Y174.57 E117.48121
G1 X2.567 Y174.083 E117.58937
G1 X2.486 Y173.427 E117.7295
G1 X2.564 Y167.677 E118.94861
G1 X2.588 Y166.928 E119.10748
G1 X2.821 Y163.75 E119.78302
G1 X2.945 Y160.998 E120.36704
G1 X2.99 Y158.252 E120.94927
G1 X2.957 Y155.501 E121.53252
G1 X2.849 Y152.791 E122.1075
G1 X2.661 Y150.047 E122.69059
G1 X2.505 Y148.335 E123.05504
G1 X2.481 Y147.792 E123.17027
G1 X2.564 Y142.28 E124.33894
G1 X2.588 Y141.521 E124.49993
G1 X2.643 Y141.013 E124.60826
G1 X2.777 Y140.52 E124.71656
G1 X3.26 Y139.535 E124.94914
G1 X4.025 Y138.122 E125.28978
G1 X5.247 Y135.706 E125.86376
G1 X6.415 Y133.227 E126.44472
G1 X7.525 Y130.687 E127.03237
G1 X8.55 Y128.152 E127.61206
G1 X9.488 Y125.617 E128.18509
G1 X10.375 Y123.001 E128.7707
G1 X11.174 Y120.408 E129.34592
G1 X11.71 Y118.501 E129.76587
G1 X12.33 Y116.21 E130.26903
G1 X12.7 Y114.906 E130.55639
G1 X13.453 Y112.366 E131.11804
G1 X13.798 Y111.255 E131.36466
G1 X14.645 Y108.641 E131.9472
G1 X15.021 Y107.528 E132.19625
G1 X15.916 Y104.984 E132.76798
G1 X16.336 Y103.836 E133.02714
G1 X17.279 Y101.352 E133.59042
G1 X17.738 Y100.185 E133.85627
G1 X18.751 Y97.705 E134.4242
G1 X19.227 Y96.581 E134.68297
G1 X20.278 Y94.174 E135.23978
G1 X20.819 Y92.977 E135.51826
G1 X21.938 Y90.585 E136.07811
G1 X22.471 Y89.479 E136.33839
G1 X23.656 Y87.098 E136.90222
G1 X24.227 Y85.986 E137.16723
G1 X25.477 Y83.625 E137.73358
G1 X26.039 Y82.594 E137.98252
G1 X27.01 Y80.863 E138.40328
G1 X28.345 Y78.404 E138.99646
G1 X29.576 Y75.975 E139.57376
G1 X30.738 Y73.512 E140.15111
G1 X31.83 Y71.014 E140.72908
G1 X32.873 Y68.437 E141.31845
G1 X33.821 Y65.886 E141.8954
G1 X34.69 Y63.331 E142.46753
G1 X35.505 Y60.687 E143.05409
G1 X36.238 Y58.049 E143.63453
G1 X36.899 Y55.387 E144.21601
G1 X37.486 Y52.682 E144.80282
G1 X37.983 Y50.042 E145.37233
G1 X38.411 Y47.358 E145.94853
G1 X38.774 Y44.576 E146.54331
G1 X38.988 Y42.525 E146.98049
G1 X39.043 Y41.939 E147.10526
G1 X39.113 Y41.443 E147.21146
G1 X39.26 Y40.68 E147.37619
G1 X39.411 Y40.085 E147.50633
G1 X39.605 Y39.448 E147.64749
G1 X39.784 Y38.951 E147.75948
G1 X40.08 Y38.241 E147.92256
G1 X40.345 Y37.692 E148.0518
G1 X40.666 Y37.104 E148.19382
G1 X40.974 Y36.604 E148.31832
G1 X41.363 Y36.035 E148.46444
G1 X41.674 Y35.622 E148.57405
G1 X42.165 Y35.038 E148.7358
G10
;MESH:Left_UM2_Visor_Frame_NORTH_AMERICA_LETTER_v3.3mf
G0 F3960 X50.368 Y33.322
G0 X51.404 Y33.25
G0 X52.696 Y33.296
G0 X53.729 Y33.461
G0 X54.731 Y33.727
G0 X55.702 Y34.096
G0 X56.629 Y34.559
G0 X57.506 Y35.115
G0 X58.321 Y35.756
G0 X59.066 Y36.476
G0 X59.735 Y37.267
G0 X60.321 Y38.124
G0 X60.817 Y39.035
G0 X61.217 Y39.992
G0 X61.518 Y40.984
G0 X61.718 Y42
G0 X61.813 Y43.034
G0 X61.804 Y44.069
G0 X61.69 Y45.099
G0 X61.47 Y46.113
G0 X61.151 Y47.098
G0 X60.732 Y48.047
G0 X60.219 Y48.948
G0 X58.35 Y51.16
G0 X57.377 Y50.195
G0 X54.909 Y52.68
G0 X52.474 Y55.231
G0 X49.926 Y58.056
G0 X47.46 Y60.933
G0 X45.047 Y63.891
G0 X42.727 Y66.888
G0 X40.467 Y69.964
G0 X38.292 Y73.082
G0 X36.196 Y76.257
G0 X34.179 Y79.482
G0 X32.244 Y82.757
G0 X30.391 Y86.076
G0 X28.628 Y89.433
G0 X26.913 Y92.905
G0 X25.338 Y96.306
G0 X23.827 Y99.795
G0 X22.401 Y103.322
G0 X21.071 Y106.87
G0 X19.821 Y110.476
G0 X18.664 Y114.099
G0 X17.599 Y117.75
G0 X16.557 Y121.777
G0 X15.799 Y124.897
G0 X14.956 Y128.833
G0 X14.258 Y132.587
G0 X13.657 Y136.342
G0 X13.152 Y140.099
G0 X12.735 Y143.891
G0 X12.419 Y147.667
G0 X12.194 Y151.466
G0 X12.065 Y155.28
G0 X12.03 Y159.082
G0 X12.091 Y162.872
G0 X12.247 Y166.672
G0 X12.498 Y170.468
G0 X12.845 Y174.267
G0 X13.283 Y178.049
G0 X13.616 Y179.372
G0 X14.334 Y180.759
G0 X15.379 Y181.922
G0 X28.495 Y188.875
G0 X30.966 Y199.283
G0 X31.547 Y200.698
G0 X32.457 Y201.924
G0 X33.602 Y202.865
G0 X34.98 Y203.534
G0 X133.113 Y203.639
G0 X134.355 Y203.125
G0 X135.669 Y202.198
G0 X136.685 Y200.983
G0 X141.599 Y186.898
G0 X151.541 Y182.862
G0 X152.873 Y182.043
G0 X153.952 Y180.917
G0 X154.717 Y179.553
G0 X156.975 Y168.446
;TYPE:WALL-INNER
G11
G1 F1500 E149.7358
G1 F1980 X160.989 Y168.372 E150.58691
G1 X161.254 Y168.368 E150.6431
G1 X161.258 Y168.633 E150.67946
G1 X161.309 Y171.787 E151.34819
G1 X161.313 Y172.052 E151.40438
G1 X161.048 Y172.055 E151.44069
G1 X156.88 Y172.113 E152.32439
G1 X156.682 Y172.115 E152.36637
G1 X156.455 Y174.354 E152.84347
G1 X156.399 Y174.898 E152.95941
G1 X156.256 Y176.152 E153.22698
G1 X156.063 Y177.753 E153.56885
G1 X156.001 Y178.188 E153.662
G1 X155.981 Y178.323 E153.69093
G1 X155.88 Y178.873 E153.80948
G1 X155.832 Y179.038 E153.84591
G1 X155.677 Y179.571 E153.96359
G1 X155.549 Y179.885 E154.03547
G1 X155.403 Y180.243 E154.11744
G1 X155.164 Y180.693 E154.22546
G1 X155.054 Y180.898 E154.27478
G1 X154.684 Y181.447 E154.41513
G1 X154.648 Y181.5 E154.42872
G1 X154.188 Y182.052 E154.58105
G1 X154.097 Y182.141 E154.60803
G1 X153.664 Y182.56 E154.73577
G1 X153.434 Y182.741 E154.79782
G1 X153.092 Y183.012 E154.89032
G1 X152.705 Y183.257 E154.98743
G1 X152.464 Y183.41 E155.04795
G1 X151.919 Y183.682 E155.17708
G1 X151.829 Y183.727 E155.19841
G1 X151.141 Y183.984 E155.35411
G1 X151.068 Y184.003 E155.3701
G1 X150.436 Y184.167 E155.50852
G1 X150.214 Y184.201 E155.55613
G1 X149.662 Y184.286 E155.67454
G1 X149.327 Y184.327 E155.74609
G1 X148.679 Y184.407 E155.88451
G1 X148.313 Y184.477 E155.9635
G1 X147.598 Y184.616 E156.11792
G1 X147.328 Y184.695 E156.17756
G1 X146.523 Y184.933 E156.35553
G1 X146.403 Y184.981 E156.38292
G1 X145.485 Y185.349 E156.5926
G1 X145.473 Y185.355 E156.59544
G1 X144.604 Y185.799 E156.80232
G1 X144.49 Y185.858 E156.82953
G1 X143.758 Y186.325 E157.01361
G1 X143.546 Y186.461 E157.06701
G1 X142.981 Y186.9 E157.21869
G1 X142.662 Y187.148 E157.30436
G1 X142.223 Y187.563 E157.43243
G1 X141.848 Y187.917 E157.54175
G1 X141.55 Y188.257 E157.6376
G1 X141.11 Y188.757 E157.7788
G1 X140.915 Y189.026 E157.84924
G1 X140.453 Y189.663 E158.01606
G1 X140.358 Y189.824 E158.05569
G1 X139.886 Y190.626 E158.25297
G1 X139.862 Y190.677 E158.26492
G1 X139.433 Y191.586 E158.47801
G1 X139.408 Y191.638 E158.49025
G1 X139.097 Y192.505 E158.68552
G1 X139.03 Y192.692 E158.72763
G1 X138.836 Y193.448 E158.89309
G1 X138.752 Y193.774 E158.96446
G1 X138.645 Y194.443 E159.10809
G1 X138.575 Y194.88 E159.20192
G1 X138.544 Y195.393 E159.31087
G1 X138.506 Y195.997 E159.43917
G1 X138.516 Y196.386 E159.52167
G1 X138.539 Y197.195 E159.69325
G1 X138.557 Y197.848 E159.83174
G1 X138.544 Y198.032 E159.87084
G1 X138.503 Y198.562 E159.98354
G1 X138.436 Y198.932 E160.06325
G1 X138.372 Y199.283 E160.13889
G1 X138.219 Y199.815 E160.25625
G1 X138.173 Y199.972 E160.29093
G1 X137.899 Y200.648 E160.44557
G1 X137.884 Y200.676 E160.4523
G1 X137.569 Y201.27 E160.59484
G1 X137.437 Y201.468 E160.64529
G1 X137.148 Y201.9 E160.75548
G1 X136.899 Y202.199 E160.83797
G1 X136.694 Y202.445 E160.90585
