;FLAVOR:UltiGCode
;TIME:5707
;MATERIAL:26416
;MATERIAL2:0
;NOZZLE_DIAMETER:0.6
;MINX:4.419
;MINY:4.651
;MINZ:0.4
;MAXX:219.942
;MAXY:215.227
;MAXZ:5.8
;Generated with Cura_SteamEngine 4.5.0
M82 ;absolute extrusion mode

G92 E0
G92 E0
G10
;LAYER_COUNT:12
;LAYER:0
M107
G1 F600 Z1.4
G0 F3927.3 X43.301 Y31.717 Z1.4
;TYPE:SKIRT
G1 F600 Z0.4
G11
G1 F2160 X43.612 Y31.304 E0.1096
G1 X44.103 Y30.72 E0.27136
G1 X44.477 Y30.32 E0.38745
G1 X45.003 Y29.81 E0.54277
G1 X45.383 Y29.476 E0.65003
G1 X45.998 Y28.99 E0.8162
G1 X46.498 Y28.637 E0.94596
G1 X47.093 Y28.262 E1.09506
G1 X47.622 Y27.966 E1.22357
G1 X48.185 Y27.686 E1.35687
G1 X48.645 Y27.482 E1.46355
G1 X49.396 Y27.194 E1.63407
G1 X49.968 Y27.012 E1.76132
G1 X50.631 Y26.835 E1.9068
G1 X51.225 Y26.711 E2.03545
G1 X51.884 Y26.607 E2.17688
G1 X52.919 Y26.473 E2.39813
G1 X55.642 Y26.085 E2.98124
G1 X58.362 Y25.617 E3.56635
G1 X61.025 Y25.083 E4.14215
G1 X63.687 Y24.47 E4.72126
G1 X66.359 Y23.775 E5.30658
G1 X68.97 Y23.016 E5.88302
G1 X71.582 Y22.174 E6.46482
G1 X74.16 Y21.264 E7.04441
G1 X76.73 Y20.273 E7.62835
G1 X79.256 Y19.217 E8.20878
G1 X81.708 Y18.109 E8.77921
G1 X85.112 Y16.432 E9.58368
G1 X85.599 Y16.181 E9.69983
G1 X86.104 Y15.935 E9.81892
G1 X86.677 Y15.693 E9.95078
G1 X87.244 Y15.487 E10.07867
G1 X87.853 Y15.291 E10.2143
G1 X88.875 Y14.991 E10.44011
G1 X90.759 Y14.453 E10.85548
G1 X91.961 Y14.125 E11.11962
G1 X94.619 Y13.428 E11.70217
G1 X95.705 Y13.158 E11.93941
G1 X98.348 Y12.528 E12.51543
G1 X99.585 Y12.248 E12.78431
G1 X102.491 Y11.582 E13.41635
G1 X105.115 Y10.9 E13.99112
G1 X107.74 Y10.139 E14.57053
G1 X110.362 Y9.297 E15.15436
G1 X112.942 Y8.387 E15.73434
G1 X115.457 Y7.419 E16.30565
G1 X118.025 Y6.348 E16.89552
G1 X121.111 Y4.951 E17.61366
G1 X121.591 Y4.777 E17.7219
G1 X122.343 Y4.662 E17.88318
G1 X127.942 Y4.651 E19.07017
G1 X128.63 Y4.661 E19.21604
G1 X129.17 Y4.694 E19.33073
G1 X131.38 Y4.882 E19.80095
G1 X134.12 Y5.036 E20.38274
G1 X136.867 Y5.113 E20.96534
G1 X139.582 Y5.113 E21.54092
G1 X142.332 Y5.034 E22.12416
G1 X145.063 Y4.879 E22.70406
G1 X146.733 Y4.746 E23.05922
G1 X147.575 Y4.672 E23.23841
G1 X148.118 Y4.651 E23.35362
G1 X153.342 Y4.651 E24.4611
G1 X154.03 Y4.661 E24.60697
G1 X154.539 Y4.709 E24.71536
G1 X155.034 Y4.835 E24.82365
G1 X155.832 Y5.183 E25.00821
G1 X158.379 Y6.334 E25.60075
G1 X160.881 Y7.38 E26.17566
G1 X163.428 Y8.362 E26.75437
G1 X166.034 Y9.283 E27.34033
G1 X168.626 Y10.116 E27.91751
G1 X171.239 Y10.877 E28.49448
G1 X173.914 Y11.573 E29.08046
G1 X178.036 Y12.514 E29.97681
G1 X180.663 Y13.139 E30.54928
G1 X181.828 Y13.429 E30.8038
G1 X184.532 Y14.136 E31.39631
G1 X185.586 Y14.425 E31.62801
G1 X188.103 Y15.142 E32.18284
G1 X188.726 Y15.329 E32.32074
G1 X189.449 Y15.569 E32.48224
G1 X190.004 Y15.777 E32.60789
G1 X190.923 Y16.211 E32.82335
G1 X191.457 Y16.511 E32.9532
G1 X191.953 Y16.821 E33.0772
G1 X192.45 Y17.17 E33.20595
G1 X192.899 Y17.519 E33.32651
G1 X193.336 Y17.898 E33.44914
G1 X193.811 Y18.354 E33.58873
G1 X194.208 Y18.778 E33.71187
G1 X194.591 Y19.23 E33.83747
G1 X194.943 Y19.692 E33.96061
G1 X196.066 Y21.332 E34.38199
G1 X196.983 Y22.65 E34.72238
G1 X198.612 Y24.883 E35.30836
G1 X200.267 Y27.019 E35.88121
G1 X202.014 Y29.15 E36.46539
G1 X203.795 Y31.2 E37.04109
G1 X205.669 Y33.239 E37.6282
G1 X207.566 Y35.187 E38.20464
G1 X209.546 Y37.11 E38.78979
G1 X210.753 Y38.227 E39.13843
G1 X211.267 Y38.716 E39.28884
G1 X211.691 Y39.164 E39.41961
G1 X212.068 Y39.606 E39.54277
G1 X212.413 Y40.051 E39.66214
G1 X214.007 Y42.29 E40.24481
G1 X215.67 Y44.491 E40.82963
G1 X217.372 Y46.617 E41.40699
G1 X218.76 Y48.245 E41.86053
G1 X219.174 Y48.74 E41.99734
G1 X219.469 Y49.157 E42.10563
G1 X219.695 Y49.615 E42.2139
G1 X219.848 Y50.102 E42.32212
G1 X219.926 Y50.666 E42.44283
G1 X219.859 Y56.516 E43.68311
G1 X219.837 Y57.264 E43.84175
G1 X219.797 Y57.784 E43.95232
G1 X219.6 Y60.499 E44.52941
G1 X219.478 Y63.245 E45.11214
G1 X219.434 Y65.995 E45.69521
G1 X219.468 Y68.745 E46.27826
G1 X219.577 Y71.454 E46.85303
G1 X219.767 Y74.206 E47.43784
G1 X219.916 Y75.833 E47.78421
G1 X219.942 Y76.387 E47.90179
G1 X219.859 Y81.913 E49.07343
G1 X219.837 Y82.661 E49.23208
G1 X219.781 Y83.168 E49.34021
G1 X219.648 Y83.661 E49.44847
G1 X219.203 Y84.589 E49.66665
G1 X218.396 Y86.077 E50.02551
G1 X217.175 Y88.492 E50.59921
G1 X216.014 Y90.953 E51.17609
G1 X214.921 Y93.457 E51.7553
G1 X213.874 Y96.043 E52.34676
G1 X212.936 Y98.578 E52.91979
G1 X212.056 Y101.171 E53.50031
G1 X211.25 Y103.785 E54.08022
G1 X210.693 Y105.765 E54.51627
G1 X210.067 Y108.085 E55.0257
G1 X209.742 Y109.232 E55.27844
G1 X208.981 Y111.794 E55.84504
G1 X208.608 Y112.994 E56.11144
G1 X207.814 Y115.446 E56.65784
G1 X207.375 Y116.747 E56.94893
G1 X206.529 Y119.152 E57.48942
G1 X206.062 Y120.428 E57.77748
G1 X205.147 Y122.838 E58.32398
G1 X204.681 Y124.022 E58.59373
G1 X203.695 Y126.436 E59.14654
G1 X203.192 Y127.629 E59.42102
G1 X202.115 Y130.09 E59.99053
G1 X201.631 Y131.161 E60.23969
G1 X200.486 Y133.61 E60.81282
G1 X199.952 Y134.717 E61.07338
G1 X198.757 Y137.118 E61.64195
G1 X198.195 Y138.211 E61.9025
G1 X196.959 Y140.548 E62.46297
G1 X196.353 Y141.661 E62.73164
G1 X195.402 Y143.355 E63.14349
G1 X194.103 Y145.746 E63.72036
G1 X192.85 Y148.218 E64.3079
G1 X191.695 Y150.664 E64.88136
G1 X190.599 Y153.168 E65.46083
G1 X189.546 Y155.763 E66.05453
G1 X188.619 Y158.263 E66.6198
G1 X187.726 Y160.89 E67.20802
G1 X186.932 Y163.457 E67.77766
G1 X186.185 Y166.144 E68.36891
G1 X185.53 Y168.788 E68.94638
G1 X184.946 Y171.457 E69.52559
G1 X184.442 Y174.141 E70.10455
G1 X184.015 Y176.82 E70.67966
G1 X183.652 Y179.599 E71.27382
G1 X183.356 Y182.455 E71.88253
G1 X183.162 Y183.516 E72.11119
G1 X183.01 Y184.119 E72.24303
G1 X182.818 Y184.748 E72.38245
G1 X182.642 Y185.239 E72.49303
G1 X182.352 Y185.937 E72.65327
G1 X182.078 Y186.504 E72.78677
G1 X181.756 Y187.094 E72.92927
G1 X181.415 Y187.647 E73.067
G1 X181.058 Y188.166 E73.20054
G1 X180.687 Y188.653 E73.33033
G1 X180.258 Y189.161 E73.4713
G1 X179.855 Y189.589 E73.59592
G1 X179.354 Y190.073 E73.7436
G1 X178.972 Y190.407 E73.85118
G1 X178.367 Y190.887 E74.0149
G1 X177.86 Y191.242 E74.14612
G1 X177.274 Y191.613 E74.29315
G1 X176.733 Y191.916 E74.42461
G1 X176.175 Y192.193 E74.55668
G1 X175.581 Y192.452 E74.69406
G1 X174.954 Y192.688 E74.83608
G1 X174.397 Y192.865 E74.95999
G1 X173.73 Y193.043 E75.10634
G1 X173.123 Y193.17 E75.23781
G1 X172.45 Y193.277 E75.38228
G1 X171.326 Y193.423 E75.62257
G1 X168.559 Y193.821 E76.21521
G1 X165.867 Y194.287 E76.7944
G1 X163.219 Y194.822 E77.36712
G1 X160.551 Y195.44 E77.94771
G1 X157.87 Y196.141 E78.53519
G1 X155.268 Y196.901 E79.10986
G1 X152.648 Y197.748 E79.69361
G1 X150.072 Y198.663 E80.27315
G1 X147.544 Y199.641 E80.84779
G1 X144.973 Y200.72 E81.4389
G1 X142.514 Y201.836 E82.01138
G1 X139.31 Y203.416 E82.76873
G1 X138.806 Y203.675 E82.88886
G1 X138.259 Y203.942 E83.0179
G1 X137.744 Y204.162 E83.13663
G1 X137.155 Y204.379 E83.2697
G1 X136.551 Y204.574 E83.40425
G1 X135.559 Y204.867 E83.62354
G1 X133.522 Y205.448 E84.07261
G1 X132.443 Y205.743 E84.30975
G1 X129.741 Y206.45 E84.90186
G1 X128.656 Y206.72 E85.13889
G1 X125.954 Y207.364 E85.72776
G1 X124.635 Y207.661 E86.01439
G1 X121.914 Y208.286 E86.60627
G1 X119.278 Y208.969 E87.18355
G1 X116.652 Y209.73 E87.76317
G1 X114.05 Y210.564 E88.34244
G1 X111.442 Y211.482 E88.92858
G1 X108.953 Y212.439 E89.49391
G1 X106.39 Y213.507 E90.08255
G1 X103.276 Y214.916 E90.80716
G1 X102.797 Y215.092 E90.91534
G1 X102.06 Y215.212 E91.07364
G1 X96.42 Y215.227 E92.26933
G1 X95.732 Y215.217 E92.4152
G1 X95.192 Y215.184 E92.52989
G1 X92.982 Y214.996 E93.00011
G1 X90.242 Y214.842 E93.5819
G1 X87.495 Y214.765 E94.16449
G1 X84.78 Y214.765 E94.74007
G1 X82.03 Y214.844 E95.32332
G1 X79.299 Y214.999 E95.90322
G1 X77.629 Y215.132 E96.25838
G1 X76.787 Y215.206 E96.43757
G1 X76.244 Y215.227 E96.55277
G1 X71.02 Y215.227 E97.66026
G1 X70.332 Y215.217 E97.80613
G1 X69.823 Y215.169 E97.91452
G1 X69.328 Y215.043 E98.02281
G1 X68.511 Y214.686 E98.21182
G1 X65.959 Y213.534 E98.80542
G1 X63.434 Y212.477 E99.38573
G1 X60.889 Y211.499 E99.96373
G1 X58.318 Y210.592 E100.54171
G1 X55.706 Y209.752 E101.12338
G1 X53.103 Y208.996 E101.69802
G1 X50.427 Y208.3 E102.28421
G1 X46.373 Y207.375 E103.16574
G1 X43.699 Y206.739 E103.74845
G1 X42.533 Y206.449 E104.00317
G1 X39.829 Y205.742 E104.59569
G1 X38.775 Y205.453 E104.82738
G1 X36.258 Y204.736 E105.38222
G1 X35.635 Y204.549 E105.52011
G1 X34.912 Y204.309 E105.68161
G1 X34.363 Y204.103 E105.80592
G1 X33.441 Y203.668 E106.02205
G1 X32.919 Y203.377 E106.14875
G1 X32.417 Y203.063 E106.27428
G1 X31.925 Y202.718 E106.40167
G1 X31.45 Y202.348 E106.52932
G1 X30.986 Y201.944 E106.65974
G1 X30.568 Y201.543 E106.78254
G1 X30.156 Y201.104 E106.91018
G1 X29.767 Y200.645 E107.03773
G1 X29.417 Y200.185 E107.16027
G1 X28.008 Y198.128 E107.68885
G1 X26.432 Y195.916 E108.26465
G1 X24.792 Y193.744 E108.84163
G1 X23.058 Y191.578 E109.42984
G1 X21.302 Y189.509 E110.00515
G1 X19.469 Y187.47 E110.58641
G1 X17.576 Y185.48 E111.16868
G1 X15.643 Y183.558 E111.74657
G1 X13.718 Y181.754 E112.30587
G1 X13.087 Y181.154 E112.49046
G1 X12.678 Y180.72 E112.61689
G1 X12.282 Y180.257 E112.74605
G1 X11.95 Y179.827 E112.86122
G1 X10.372 Y177.612 E113.43777
G1 X8.691 Y175.388 E114.02879
G1 X7.003 Y173.279 E114.60148
G1 X5.6 Y171.633 E115.05999
G1 X5.178 Y171.127 E115.19967
G1 X4.883 Y170.71 E115.30796
G1 X4.657 Y170.252 E115.41624
G1 X4.505 Y169.765 E115.52439
G1 X4.424 Y169.109 E115.66452
G1 X4.502 Y163.359 E116.88363
G1 X4.526 Y162.61 E117.0425
G1 X4.759 Y159.432 E117.71805
G1 X4.883 Y156.68 E118.30206
G1 X4.928 Y153.934 E118.88429
G1 X4.895 Y151.183 E119.46755
G1 X4.787 Y148.473 E120.04252
G1 X4.599 Y145.729 E120.62561
G1 X4.443 Y144.017 E120.99006
G1 X4.419 Y143.474 E121.10529
G1 X4.502 Y137.962 E122.27397
G1 X4.526 Y137.203 E122.43495
G1 X4.581 Y136.695 E122.54328
G1 X4.715 Y136.202 E122.65159
G1 X5.188 Y135.235 E122.8798
G1 X5.95 Y133.83 E123.21865
G1 X7.186 Y131.387 E123.79908
G1 X8.341 Y128.938 E124.37311
G1 X9.452 Y126.395 E124.96143
G1 X10.482 Y123.847 E125.54407
G1 X11.425 Y121.3 E126.11986
G1 X12.308 Y118.698 E126.70238
G1 X13.103 Y116.116 E127.27512
G1 X13.665 Y114.121 E127.71452
G1 X14.286 Y111.824 E128.21897
G1 X14.618 Y110.649 E128.47782
G1 X15.389 Y108.054 E129.05173
G1 X15.74 Y106.924 E129.30258
G1 X16.583 Y104.323 E129.88223
G1 X16.959 Y103.21 E130.13129
G1 X17.854 Y100.666 E130.70302
G1 X18.274 Y99.518 E130.96217
G1 X19.221 Y97.02 E131.52853
G1 X19.677 Y95.865 E131.79178
G1 X20.672 Y93.425 E132.35041
G1 X21.17 Y92.248 E132.62135
G1 X22.246 Y89.788 E133.19058
G1 X22.73 Y88.717 E133.43974
G1 X23.875 Y86.268 E134.01287
G1 X24.409 Y85.161 E134.27343
G1 X25.621 Y82.728 E134.84968
G1 X26.166 Y81.666 E135.10274
G1 X27.415 Y79.307 E135.66863
G1 X27.977 Y78.276 E135.91756
G1 X28.948 Y76.545 E136.33833
G1 X30.283 Y74.086 E136.93151
G1 X31.514 Y71.657 E137.50881
G1 X32.676 Y69.194 E138.08616
G1 X33.776 Y66.678 E138.6683
G1 X34.818 Y64.107 E139.25642
G1 X35.746 Y61.605 E139.82215
G1 X36.637 Y58.98 E140.40983
G1 X37.443 Y56.37 E140.98894
G1 X38.178 Y53.723 E141.57133
G1 X38.829 Y51.097 E142.1449
G1 X39.424 Y48.374 E142.73579
G1 X39.923 Y45.711 E143.31017
G1 X40.348 Y43.044 E143.88271
G1 X40.712 Y40.257 E144.47857
G1 X40.926 Y38.207 E144.91554
G1 X40.981 Y37.621 E145.04031
G1 X41.051 Y37.125 E145.14651
G1 X41.198 Y36.362 E145.31124
G1 X41.349 Y35.767 E145.44138
G1 X41.543 Y35.13 E145.58255
G1 X41.722 Y34.633 E145.69453
G1 X42.018 Y33.923 E145.85761
G1 X42.283 Y33.374 E145.98685
G1 X42.604 Y32.786 E146.12887
G1 X42.912 Y32.286 E146.25337
G1 X43.301 Y31.717 E146.39949
G10
G1 F600 Z1.4
;MESH:Object 1
G0 F3927.3 X158.913 Y164.128 Z1.4
;TYPE:WALL-INNER
G1 F600 Z0.4
G11
G1 F2160 X163.192 Y164.05 E147.30679
G1 X163.25 Y167.734 E148.0879
G1 X158.818 Y167.795 E149.02757
G1 X158.62 Y167.797 E149.06955
G1 X158.393 Y170.036 E149.54665
G1 X158.337 Y170.581 E149.6628
G1 X158.196 Y171.825 E149.92821
G1 X158 Y173.435 E150.27205
G1 X157.938 Y173.87 E150.3652
G1 X157.918 Y174.005 E150.39414
G1 X157.819 Y174.554 E150.5124
G1 X157.771 Y174.72 E150.54904
G1 X157.615 Y175.253 E150.66677
G1 X157.487 Y175.568 E150.73886
G1 X157.341 Y175.925 E150.82062
G1 X157.102 Y176.374 E150.92846
G1 X156.992 Y176.58 E150.97797
G1 X156.622 Y177.128 E151.11814
G1 X156.586 Y177.182 E151.1319
G1 X156.126 Y177.734 E151.28423
G1 X156.034 Y177.823 E151.31137
G1 X155.602 Y178.242 E151.43895
G1 X155.372 Y178.424 E151.50113
G1 X155.03 Y178.694 E151.59351
G1 X154.643 Y178.939 E151.69061
G1 X154.402 Y179.092 E151.75113
G1 X153.857 Y179.364 E151.88026
G1 X153.767 Y179.409 E151.90159
G1 X153.08 Y179.666 E152.05709
G1 X153.006 Y179.685 E152.07329
G1 X152.373 Y179.849 E152.21192
G1 X152.152 Y179.883 E152.25932
G1 X151.6 Y179.968 E152.37772
G1 X151.265 Y180.009 E152.44927
G1 X150.616 Y180.089 E152.5879
G1 X150.251 Y180.159 E152.66669
G1 X149.534 Y180.299 E152.82157
G1 X149.266 Y180.378 E152.8808
G1 X148.461 Y180.615 E153.0587
G1 X148.341 Y180.663 E153.0861
G1 X147.423 Y181.031 E153.29577
G1 X147.411 Y181.037 E153.29862
G1 X146.543 Y181.481 E153.50531
G1 X146.428 Y181.54 E153.53271
G1 X145.715 Y181.995 E153.71203
G1 X145.484 Y182.143 E153.77019
G1 X144.9 Y182.598 E153.92714
G1 X144.602 Y182.83 E154.0072
G1 X144.168 Y183.239 E154.13363
G1 X143.787 Y183.597 E154.24446
G1 X143.482 Y183.945 E154.34256
G1 X143.047 Y184.439 E154.48211
G1 X142.853 Y184.708 E154.55242
G1 X142.391 Y185.345 E154.71924
G1 X142.296 Y185.506 E154.75887
G1 X141.823 Y186.308 E154.95626
G1 X141.799 Y186.359 E154.96821
G1 X141.371 Y187.268 E155.18121
G1 X141.346 Y187.321 E155.19364
G1 X141.036 Y188.187 E155.38864
G1 X140.968 Y188.374 E155.43082
G1 X140.774 Y189.13 E155.59629
G1 X140.69 Y189.456 E155.66765
G1 X140.583 Y190.125 E155.81129
G1 X140.513 Y190.562 E155.90511
G1 X140.482 Y191.075 E156.01406
G1 X140.444 Y191.678 E156.14215
G1 X140.454 Y192.068 E156.22486
G1 X140.476 Y192.878 E156.39664
G1 X140.494 Y193.53 E156.53492
G1 X140.481 Y193.714 E156.57403
G1 X140.44 Y194.244 E156.68672
G1 X140.373 Y194.614 E156.76644
G1 X140.311 Y194.957 E156.84033
G1 X140.156 Y195.497 E156.95944
G1 X140.11 Y195.654 E156.99412
G1 X139.836 Y196.329 E157.14856
G1 X139.821 Y196.357 E157.15529
G1 X139.501 Y196.961 E157.3002
G1 X139.375 Y197.15 E157.34836
G1 X139.089 Y197.578 E157.45749
G1 X138.837 Y197.881 E157.54104
G1 X138.632 Y198.127 E157.60892
G1 X138.212 Y198.539 E157.73365
G1 X138.114 Y198.636 E157.76288
G1 X137.55 Y199.086 E157.91585
G1 X137.494 Y199.122 E157.92996
G1 X136.934 Y199.481 E158.07098
G1 X136.699 Y199.599 E158.12673
G1 X136.29 Y199.806 E158.22391
G1 X135.595 Y200.07 E158.38152
G1 X134.863 Y200.287 E158.54338
G1 X134.531 Y200.386 E158.61683
G1 X134.382 Y200.428 E158.64965
G1 X131.772 Y201.174 E159.22512
G1 X128.091 Y202.136 E160.0317
G1 X124.349 Y203.027 E160.84719
G1 X120.635 Y203.827 E161.65261
G1 X116.877 Y204.546 E162.46376
G1 X113.115 Y205.183 E163.27266
G1 X109.346 Y205.735 E164.08021
G1 X108.408 Y205.853 E164.28063
G1 X105.54 Y206.207 E164.89326
G1 X100.57 Y206.713 E165.95235
G1 X100.579 Y210.373 E166.72827
G1 X100.579 Y210.638 E166.78445
G1 X100.314 Y210.638 E166.82081
G1 X97.096 Y210.637 E167.50303
G1 X97.105 Y207.247 E168.22171
G1 X97.105 Y207.246 E168.22192
G1 X97.105 Y206.97 E168.28043
G1 X96.829 Y206.982 E168.31789
G1 X91.888 Y207.202 E169.36642
G1 X88.04 Y207.287 E170.18239
G1 X84.234 Y207.287 E170.98926
G1 X80.387 Y207.203 E171.80502
G1 X75.446 Y206.983 E172.85355
G1 X75.17 Y206.971 E172.91212
G1 X75.17 Y207.247 E172.94954
G1 X75.17 Y207.248 E172.94975
G1 X75.179 Y210.638 E173.66843
G1 X71.959 Y210.637 E174.35107
G1 X71.694 Y210.637 E174.40725
G1 X71.694 Y210.372 E174.44361
G1 X71.705 Y206.712 E175.21953
G1 X66.735 Y206.208 E176.27858
G1 X62.929 Y205.734 E177.09168
G1 X59.159 Y205.183 E177.89941
G1 X55.384 Y204.543 E178.71113
G1 X51.651 Y203.827 E179.51695
G1 X47.925 Y203.027 E180.32487
G1 X44.183 Y202.136 E181.14035
G1 X40.496 Y201.172 E181.94827
G1 X37.444 Y200.3 E182.62118
G1 X37.071 Y200.194 E182.70339
G1 X36.857 Y200.133 E182.75057
G1 X36.144 Y199.882 E182.91082
G1 X35.73 Y199.685 E183.00801
G1 X35.494 Y199.573 E183.06339
